X: 1
T: String Quartet in D Major opus 20 no 4 mvt 3
C: Franz Joseph Haydn
%%abc-version 2.0
%%abcx-abcm2ps-target-version 5.9.1 (29 Sep 2008)
%%abc-creator hum2abc beta
%%abcx-conversion-date 2021/02/14 14:38:37
%%abc-copyright Copyright (c) 1994, 2000 Center for Computer Assisted Research in the Humanities
%%abc-edited-by Frances Bennion
%%abcx-initial-encoding-date 1997/04/15
%%gracespace 0 6 6
%%humdrum-veritas 2802000620
%%humdrum-veritas-data 3866900110
%%linebreak <none>
%%barnumbers 0
L: 1/4
M: 3/4
N: Derived from op20n4-03.krn
Q: "Menuetto alla zingarese"
%%staves [1 2 3 4]
V: 1
V: 2
V: 3 clef=alto
V: 4 clef=bass
K: D
[V:1]z2 A [I:setbarnb1] |
[V:2]z2 z |
[V:3]z2 z |
[V:4]z2 z |
[V:1]d e2 |
[V:2]A3- |
[V:3]F E C |
[V:4]D C A, |
[V:1]f g e- |
[V:2]A B G- |
[V:3]D B,2 |
[V:4]D G,2 |
[V:1]e c2 |
[V:2]G E2 |
[V:3]C2 A,- |
[V:4]A,2 A,,- |
[V:1]A2 ^G/E/ |
[V:2]C2 D |
[V:3]A, C B, |
[V:4]A,, A, E, |
[V:1]A A2 |
[V:2]C C2 |
[V:3]A,2 A, |
[V:4]A,,2 A, |
[V:1]^G/E/ A G/E/ |
[V:2]D C D |
[V:3]B, C B, |
[V:4]E, A,, E, |
[V:1]A B/d/ B/^G/ |
[V:2]C F D/B,/ |
[V:3]C D E |
[V:4]A,, D, E, |
[V:1]A z A |
[V:2]C z2 |
[V:3]A, A z |
[V:4]A,, A, z |
[V:1]a g2 |
[V:2]A, B, C |
[V:3]D E2 |
[V:4]F, E, A, |
[V:1]f b g- |
[V:2]D B,2 |
[V:3]D d B- |
[V:4]D, G,2 |
[V:1]g e2 |
[V:2]G2 E- |
[V:3]B G2 |
[V:4]E2 C- |
[V:1]c/d/ e/c/ a- |
[V:2]E C/D/ E/C/ |
[V:3]E A2- |
[V:4]C A,/B,/ C/A,/ |
[V:1]a f2 |
[V:2]F2 A- |
[V:3]A2 d- |
[V:4]D2 F- |
[V:1]d2 B/c/ |
[V:2]A B2 |
[V:3]d B2- |
[V:4]F G2 |
[V:1]d/B/ g2 |
[V:2]B,/C/ D/B,/ E- |
[V:3]B G2- |
[V:4]G,/A,/ B,/G,/ C- |
[V:1]e2 c/A/ |
[V:2]E G2 |
[V:3]G E2 |
[V:4]C E2 |
[V:1]d d2 |
[V:2]F F2 |
[V:3]D2 F |
[V:4]D2 D, |
[V:1]c/A/ d c/A/ |
[V:2]G F G |
[V:3]E D E |
[V:4]A, D, A, |
[V:1]d e/g/ e/c/ |
[V:2]F B G/E/ |
[V:3]D G, A, |
[V:4]D, G, A, |
[V:1]d z2 |
[V:2]F z2 |
[V:3]D, z2 |
[V:4]D, D,, A, |
[V:1]F F F |
[V:2]D D D |
[V:3]z2 A, |
[V:4]D/C/ B,/A,/ G,/F,/ |
[V:1]E z2 |
[V:2]D z2 |
[V:3]B, z2 |
[V:4]G,/A,/ B,/A,/ G,/F,/ |
[V:1]G G G |
[V:2]C C C |
[V:3]z2 A, |
[V:4]E,/G,/ A,/G,/ F,/E,/ |
[V:1]F z2 |
[V:2]D z2 |
[V:3]D z2 |
[V:4]D,/B,,/ A,,/G,,/ F,,/E,,/ |
[V:1]d d d |
[V:2]F F F |
[V:3]z2 D |
[V:4]D,,/F,,/ A,,/D,/ F,/^G,/ |
[V:1]c z2 |
[V:2]E z2 |
[V:3]A z2 |
[V:4]A,/^G,/ F,/E,/ D,/C,/ |
[V:1]B B B |
[V:2]A A ^G |
[V:3]F z E |
[V:4]D,/C,/ D,/B,,/ E,/E,,/ |
[V:1]A z2 |
[V:2]A z2 |
[V:3]E z2 |
[V:4]A,, z A,, |
[V:1]c/d/ e/c/ e/f/ |
[V:2]A3- |
[V:3]A,3- |
[V:4]A,/B,/ C/A,/ C/D/ |
[V:1]g/f/ e/f/ e/d/ |
[V:2]A3- |
[V:3]A,3- |
[V:4]E/D/ C/D/ E/F/ |
[V:1]c2 d |
[V:2]A3- |
[V:3]A,3- |
[V:4]G/F/ G/E/ F/D/ |
[V:1]e z2 |
[V:2]A z2 |
[V:3]A, z2 |
[V:4]C/D/ E/C/ A,/C/ |
[V:1]F F F |
[V:2]D D D |
[V:3]z2 A, |
[V:4]D/C/ B,/A,/ G,/F,/ |
[V:1]E z2 |
[V:2]D z2 |
[V:3]B, z2 |
[V:4]G,/A,/ B,/A,/ G,/F,/ |
[V:1]G F E |
[V:2]E D C |
[V:3]z2 A, |
[V:4]E,/G,/ A,/G,/ A,/A,,/ |
[V:1]D z2 |]
[V:2]D z2 |]
[V:3]D, z2 |]
[V:4]D, z2 |]

